X:469
T: Women yaolai yi ge ren
N: C0000
O: Asien, Ostasien, China, Jiangxi, Yongxiu
S: Xiaodiao - Artikel, Essen 1991]
N: Das Lied wird zweiphrasig aufgefa t.
R: Xiaodiao, Yaoqu]
M: 5/8
L: 1/32
K: A
a4f4f2e2e8 | a4a2f2f2e2e8 |
d4f4e2f2e4d4 | B4c4B3AA8 |
B4B2F2A4A8 | e4e2d2B2d2d8 |
e4e4e4d2d2 | e4d4B6A2 | A16

